X:1
T:Ave Regina coelorum - Lotti
T:James Gibb editions
T:#
%%score [ 1 2 3 4 ]
L:1/8
Q:1/4=100
M:3/4
K:G
V:1 treble nm="Soprano" snm="S"
V:2 treble nm="Alto" snm="A"
V:3 treble-8 nm="Tenor" snm="T"
V:4 bass nm="Bass" snm="B"
V:1
 B2 B2 B2 |"^Ave Regina coelorum" B2 B2 B2 | B2 B4 | B4 d2 | c3 c c2 | B4 B2 | %6
w: A- ve Re-|gi- na coe-|lo- rum:|A- ve|Do- mi- na|an- ge-|
"^Antonio Lotti\n(1667-1740)" A6 | B2 B2 B2 | A2 A2 z2 | A4 A2 | B6 | A6 | z6 | z6 | z6 | B6 | A6 | %17
w: lo-|rum: Sal- ve|ra- dix,|sal- ve|por-|ta||||ex|qua|
 B6 | c6 | c6 | c6 |"^rall."[Q:1/4=98] B4[Q:1/4=95] B2 |[Q:1/4=92] B4[Q:1/4=89] B2 |[Q:1/4=86] B6 | %24
w: mun-|do|ex|qua|mun- do|lux est|or-|
[Q:1/4=10][Q:1/4=84] !fermata!B6 ||[M:4/4][Q:1/4=140][Q:1/4=140][Q:1/4=140][Q:1/4=140] z8 | z8 | %27
w: ta.|||
 e4 d4 | c4 B4 | G2 c2 B2 B2 | c6 e2 |[M:4/4] e2 e2 c2 c2 | B8 | c4 c4 | c2 c2 B4 | B2 B2 B4 | %36
w: Gau- de|Vir- go|glo- ri- o- sa,|su- per|om- nes spe- ci-|o-|sa. Va-|le, o val-|de de- co-|
 B4 z4 | z8 | e4 d4 |"^rall."[Q:1/4=138] d4[Q:1/4=134] c4 | %40
w: ra,||et pro|no- bis|
[Q:1/4=131] B4[Q:1/4=128] B2[Q:1/4=127] G2 |[Q:1/4=125] (F2[Q:1/4=123] G2[Q:1/4=121] F4) | %42
w: Chris- tum ex-|o\- * *|
[Q:1/4=120] !fermata!^G8 |] %43
w: ra.|
V:2
 G2 G2 G2 | G2 G2 G2 | F2 F4 | G4 G2 | G3 G G2 | G4 G2 | (G2 F4) | G2 G2 G2 | F2 F2 z2 | F4 F2 | %10
w: A- ve Re-|gi- na coe-|lo- rum:|A- ve|Do- mi- na|an- ge-|lo\- *|rum: Sal- ve|ra- dix,|sal- ve|
 G6 | F6 | z6 | z6 | z6 | G6 | F6 | D6 | E6 | G6 | A6 |"^rall." F4 F2 | G4 G2 | F6 | !fermata!G6 || %25
w: por-|ta||||ex|qua|mun-|do|ex|qua|mun- do|lux est|or-|ta.|
[M:4/4] z8 | z8 | G4 G4 | G4 G4 | E2 E2 D2 D2 | E2 E2 A4 |[M:4/4] B4 E2 (A2- | A2 ^GF) G4 | A4 A4 | %34
w: ||Gau- de|Vir- go|glo- ri- o- sa,|su- per om-|nes spe- ci\-|* * * o-|sa. Va-|
 A2 A2 F4 | G2 G2 F4 | F4 B4 | A4 A4 | G2 G2 F4 |"^rall." E4 E4 | ^D4 E2 E2 | (^D2 E4 D2) | %42
w: le, o val-|de de- co-|ra, et|pro no-|bis, et pro|no- bis|Chris- tum ex-|o\- * *|
 !fermata!E8 |] %43
w: ra.|
V:3
 e2 e2 e2 | e2 e2 e2 | ^d2 d4 | d4 d2 | e3 e e2 | d4 d2 | d6 | d2 d2 d2 | d2 d2 z2 | d4 d2 | d6 | %11
w: A- ve Re-|gi- na coe-|lo- rum:|A- ve|Do- mi- na|an- ge-|lo-|rum: Sal- ve|ra- dix,|sal- ve|por-|
 d6 | d6 | c6 | c6 | B6 | z6 | z6 | z6 | e6 | e6 |"^rall." ^d4 d2 | e4 e2 | (e2 ^d4) | %24
w: ta|ex|qua|mun-|do||||ex|qua|mun- do|lux est|or\- *|
 !fermata!e6 ||[M:4/4][K:treble-8] z8 | e4 d4 | c4 G4 | e4 d4 | c4 G4 | z8 | %31
w: ta.||Gau- de|Vír- go|glo- ri-|o- sa,||
[M:4/4][K:treble-8] z8 | z8 | z4 e4 | e2 e2 ^d4 | e2 e2 ^d4 | ^d4 B4 | ^c4 ^d4 | e2 G2 A4 | %39
w: ||Va-|le, o val-|de de- co-|ra, et|pro no-|bis, et pro|
"^rall." B4 A4 | B4 B2 B2 | B8 | !fermata!B8 |] %43
w: no- bis|Chris- tum ex-|o-|ra.|
V:4
 E,2 E,2 E,2 | G,2 G,2 E,2 | B,2 B,4 | G,4 B,2 | C3 C C2 | G,4 G,2 | D,6 | G,2 G,2 G,2 | D2 D2 z2 | %9
w: A- ve Re-|gi- na coe-|lo- rum:|A- ve|Do- mi- na|an- ge-|lo-|rum: Sal- ve|ra- dix,|
 D,4 D,2 | G,6 | D,6 | D,6 | E,6 | F,6 | G,6 | z6 | z6 | z6 | C6 | A,6 |"^rall." B,4 A,2 | %22
w: sal- ve|por-|ta|ex|qua|mun-|do||||ex|qua|mun- do|
 G,4 E,2 | B,,6 | !fermata!E,6 ||[M:4/4] C4 B,4 | C4 G,4 | C4 B,4 | C4 G,4 | z4 G,2 G,2 | C4 A,4 | %31
w: lux est|ór-|ta.|Gau- de|Vir- go|glo- ri-|o- sa,|su- per|om- nes|
[M:4/4] ^G,4 A,4 | E,8 | A,,4 A,4 | A,2 A,2 B,4 | G,2 E,2 B,4 | B,4 z4 | z8 | E,4 F,4 | %39
w: spe- ci-|o-|sa. Va-|le, o val-|de de- co-|ra,||et pro|
"^rall." ^G,4 A,4 | A,4 =G,2 E,2 | B,,8 | !fermata!E,8 |] %43
w: no- bis|Chris- tum ex-|o-|ra.|

